copytrade/img/icons/team3.svg

<svg width="44" height="44" viewBox="0 0 44 44" fill="none" xmlns="http://www.w3.org/2000/svg">
<rect width="44" height="44" rx="22" fill="#E5E5F1"/>
<path d="M15.7816 29.25H23.2183C23.7828 29.25 24.227 28.7817 24.1145 28.2285C23.804 26.7012 22.7897 24 19.5 24C16.2103 24 15.196 26.7012 14.8854 28.2285C14.773 28.7817 15.2171 29.25 15.7816 29.25Z" fill="#646E82" stroke="#646E82" stroke-width="1.5" stroke-linecap="round" stroke-linejoin="round"/>
<path d="M29.0239 27.696C28.6802 26.1479 27.8288 24 25.75 24C27 25.5 27.6769 27.9618 26.75 29.25C27.1071 29.3089 27.6769 29.25 27.6769 29.25C28.5333 29.25 29.2095 28.532 29.0239 27.696Z" fill="#646E82" stroke="#646E82" stroke-width="1.5" stroke-linecap="round" stroke-linejoin="round"/>
<path d="M19.5 20.25C21.0188 20.25 22.25 19.0188 22.25 17.5C22.25 15.9812 21.0188 14.75 19.5 14.75C17.9812 14.75 16.75 15.9812 16.75 17.5C16.75 19.0188 17.9812 20.25 19.5 20.25Z" fill="#646E82" stroke="#646E82" stroke-width="1.5" stroke-linecap="round" stroke-linejoin="round"/>
<path d="M24.7501 20.25C26.2689 20.25 27.2501 19.0188 27.2501 17.5C27.2501 15.9812 26.2689 14.75 24.7501 14.75C25.5001 17 25.5001 18 24.7501 20.25Z" fill="#646E82" stroke="#646E82" stroke-width="1.5" stroke-linecap="round" stroke-linejoin="round"/>
</svg>

<svg width="44" height="44" fill="none" xmlns="http://www.w3.org/2000/svg"><rect width="44" height="44" rx="22" fill="#E5E5F1"/><path d="M15.782 29.25h7.436c.565 0 1.009-.468.896-1.021C23.805 26.7 22.79 24 19.5 24s-4.304 2.701-4.615 4.229c-.112.553.332 1.021.897 1.021zm13.242-1.554C28.68 26.148 27.829 24 25.75 24c1.25 1.5 1.927 3.962 1 5.25.357.059.927 0 .927 0 .856 0 1.532-.718 1.347-1.554zM19.5 20.25a2.75 2.75 0 100-5.5 2.75 2.75 0 000 5.5zm5.25 0c1.519 0 2.5-1.231 2.5-2.75s-.981-2.75-2.5-2.75c.75 2.25.75 3.25 0 5.5z" fill="#646E82" stroke="#646E82" stroke-width="1.5" stroke-linecap="round" stroke-linejoin="round"/></svg>
